icons/solid/mail-open.svg

<svg width="24" height="24" viewBox="0 0 24 24" fill="none" xmlns="http://www.w3.org/2000/svg">
<path fill-rule="evenodd" clip-rule="evenodd" d="M4 10.1652L2.03298 8.55366C2.19832 7.44515 2.97011 6.53472 4 6.17071V10.1652ZM5 10.9845L10.7325 15.681C11.4696 16.2849 12.5304 16.2849 13.2675 15.681L19 10.9845V6V5C19 3.34315 17.6569 2 16 2H8C6.34315 2 5 3.34315 5 5L5 6L5 10.9845ZM21.967 8.55367L20 10.1652V6.17071C21.0299 6.53472 21.8017 7.44515 21.967 8.55367ZM13.2656 18.2464L22 11.1086V19C22 20.6569 20.6569 22 19 22H5C3.34315 22 2 20.6569 2 19V11.1086L10.7344 18.2464C11.4708 18.8482 12.5292 18.8482 13.2656 18.2464ZM10 9C9.44772 9 9 9.44772 9 10C9 10.5523 9.44772 11 10 11H14C14.5523 11 15 10.5523 15 10C15 9.44771 14.5523 9 14 9H10ZM10 5C9.44771 5 9 5.44772 9 6C9 6.55228 9.44772 7 10 7H14C14.5523 7 15 6.55228 15 6C15 5.44772 14.5523 5 14 5L10 5Z" fill="currentColor"/>
</svg>

<svg width="24" height="24" fill="none" xmlns="http://www.w3.org/2000/svg"><path fill-rule="evenodd" clip-rule="evenodd" d="M4 10.165L2.033 8.554A3.004 3.004 0 014 6.17v3.994zm1 .82l5.732 4.696a2 2 0 002.536 0L19 10.985V5a3 3 0 00-3-3H8a3 3 0 00-3 3v5.985zm16.967-2.431L20 10.165V6.171a3.004 3.004 0 011.967 2.383zm-8.701 9.692L22 11.11V19a3 3 0 01-3 3H5a3 3 0 01-3-3v-7.891l8.734 7.137a2 2 0 002.532 0zM10 9a1 1 0 000 2h4a1 1 0 100-2h-4zm0-4a1 1 0 100 2h4a1 1 0 100-2h-4z" fill="currentColor"/></svg>
